X:165
T:Ship in Full Sail
R:jig
D:Bohola
Z: Alf Warnock - alf0@rogers.com - www.alfwarnock.info/alfs
M:6/8
L:1/8
K:G
DGG BGG|dGG BGG|ege dBG|AGA BGE|
DGG BGG|dGG BAG|ege dBG|[1 AGF G2E:|[2 AGF G3||
|:dgg bgg|aga bge|dgg bgg|aba age|
dgg bgg|aga bgd|ege dBG|[1 AGF G3:|[2 AGF GBc||
|:d2d dBG|~e3 efg|d2d dBG|A/A/AA ABc|
d2d dBG|~e3 efg|dBG AGA|[1 BGG GBc:|[2 BGG G2E||
